;[gain=1.0 name=wiz1_13 duration=300s fade=5s cpu=0]
#opll_mode 1
#tempo 150
#title {"[SCC] FC Wizardry - Victory"}

@s00={ 7F7F7F7F00000000 0000000000000000 0000000000000000 0000000000000000 }
@s01={ 7F7F7F7F7F7F7F7F 0000000000000000 0000000000000000 0000000000000000 }
@s02={ 7F7F7F7F7F7F7F7F 7F7F7F7F7F7F7F7F 0000000000000000 0000000000000000 }
@s03={ 7F7F7F7F7F7F7F7F 7F7F7F7F7F7F7F7F 7F7F7F7F7F7F7F7F 0000000000000000 }
@s04={ 8090A0B0C0D0E0F0 0010203040506070 7060504030201000 F0E0D0C0B0A09080 }

@e0={,,37bfedcba9876543210} 
@e1={,,37bfedcba98} 

4 @2v15q8k1o4 
4 @e0 f+8.f+16f+8 f+8d8f+8 a8f+8a8 a+8f8a+8 > d8.e8. @e1f+16&f+1r4

@e2={,,248cba98876543210} 
@e3={,,248cba98876} 

5 @2v15q8k1o4 
5 @e2 d8.d16d8 d8<a8>d8 f+8d8f+8 f8d8f8 f+8.b8. @e3a+16&a+1r4

6 @4v12o3 
6 a8&a%8r%4a%8r%4a%20r%4 a%20r%4f+%20r%4a%20r%4 >d%20r%4<a%20r%4>d%20r%4 
6 d%20r%4<a+%20r%4>d%20r%4 d8&d%8r%4<g+8&g+%8r%4f+1&f+%20r%4r4