;[gain=1.0 name=wiz1_07 duration=300s fade=5s cpu=0]
#opll_mode 1
#tempo 75
#title {"[SCC] FC Wizardry - Murmur - Chant - Pray - Invoke!"}

@s00={ 7F7F7F7F00000000 0000000000000000 0000000000000000 0000000000000000 }
@s01={ 7F7F7F7F7F7F7F7F 0000000000000000 0000000000000000 0000000000000000 }
@s02={ 7F7F7F7F7F7F7F7F 7F7F7F7F7F7F7F7F 0000000000000000 0000000000000000 }
@s03={ 7F7F7F7F7F7F7F7F 7F7F7F7F7F7F7F7F 7F7F7F7F7F7F7F7F 0000000000000000 }
@s04={ 8090A0B0C0D0E0F0 0010203040506070 7060504030201000 F0E0D0C0B0A09080 }

@e0={,,37bfedcba98}
@e1={,,258cba9876}

4 v15k1 o3
4 @2@e0 
4 a%40r%8>c%40r%8d+%40r%8f%40r%8g2&g%40r%8


5 v15k1 o3
5 @2@e1
5 c%42r%6d+%42r%6f+%42r%6g+%42r%6a+2&a+%42r%6

 
6 @4v12 o2
6 f%46r%2g+%46r%2b%46r%2>c+%46r%2d+2&d+%46r%2

456 r4