;[gain=1.0 name=wiz1_11 duration=300s fade=5s cpu=0]
#opll_mode 1
#tempo 180
#title {"[SCC] FC Wizardry - Enconter"}

@s00={ 7F7F7F7F00000000 0000000000000000 0000000000000000 0000000000000000 }
@s01={ 7F7F7F7F7F7F7F7F 0000000000000000 0000000000000000 0000000000000000 }
@s02={ 7F7F7F7F7F7F7F7F 7F7F7F7F7F7F7F7F 0000000000000000 0000000000000000 }
@s03={ 7F7F7F7F7F7F7F7F 7F7F7F7F7F7F7F7F 7F7F7F7F7F7F7F7F 0000000000000000 }
@s04={ 8090A0B0C0D0E0F0 0010203040506070 7060504030201000 F0E0D0C0B0A09080 }


456 l16

@e0={,,ffedcba9876543210}
@e1={,,f}

4 @2v15o4q8k1   
4 @e0aa+b>c@e1c+%12r%36 @e0c+dd+e@e1f%12r%36 @e0ff+gg+@e1a2&a%12r%36

@e2={,,cba9876543210}
@e3={,,c}

5 @2v15o4q8k1  
5 @e2c+dd+e@e3f%19r%29 @e2ff+gg+@e3a%19r%29 @e2aa+b>c@e3c+2&c+%19r%29

6 @4v12o3 g%8r%4g+%8r%4a%8r%4a+%8r%4b%44r%4 b%8r%4>c%8r%4c+%8r%4d%8r%4d+%44r%4 d+%8r%4e%8r%4f%8r%4f+%8r%4g2&g%44r%4